X:1
T:Sancta Maria ora pro nobis
T:Sigismondo d'India edit BMarble
T:Sancta Maria ora pro nobis
T:Copyright © 2016 by CPDL.  This edition can be fully distributed, duplicated, performed, and recorded. 
T:Copyright © 2016 by CPDL.  This edition can be fully distributed, duplicated, performed, and recorded. 
T:Copyright © 2016 by CPDL.  This edition can be fully distributed, duplicated, performed, and recorded. 
T:Copyright © 2016 by CPDL.  This edition can be fully distributed, duplicated, performed, and recorded. 
T:Copyright © 2016 by CPDL.  This edition can be fully distributed, duplicated, performed, and recorded. 
T:Copyright © 2016 by CPDL.  This edition can be fully distributed, duplicated, performed, and recorded. 
T:Copyright © 2016 by CPDL.  This edition can be fully distributed, duplicated, performed, and recorded. 
T:Copyright © 2016 by CPDL.  This edition can be fully distributed, duplicated, performed, and recorded. 
T:Copyright © 2016 by CPDL.  This edition can be fully distributed, duplicated, performed, and recorded. 
C:Sigismondo d'India
C:edit BMarble
Z:Copyright © 2016 by CPDL.  This edition can be fully distributed, duplicated, performed, and recorded.
Z:
%%score [ 1 2 3 4 ]
L:1/8
Q:1/4=56
M:2/1
K:G
V:1 treble nm="Soprano Solo" snm="S. Solo"
V:2 treble nm="Alto Solo" snm="A. Solo"
V:3 treble-8 transpose=-12 nm="Tenor Solo" snm="T. Solo"
V:4 bass nm="Baritone Solo" snm="Bar. Solo"
V:1
 z16 | z16 | c8 A8 | B8 (c8 | d8) G8 | z4 (c8 B2 A2 | B8) c8 | A8 G8 | c8 z8 | z4 B4 e4 e4 | %10
w: ||San- cta|Ma- ri-|* a,|o- * *|* ra|pro no-|bis,|o- ra pro|
 d8 G8 | A4 c8 B4 | c8 A8 | z4 (d6 ^cB c4) | d8 z4 G4 | E8 D8 | z4 G4 A6 G2 | F8 G8 | z16 | %19
w: no- bis,|San- cta Ma-|ri- a,|o- * * *|ra pro|no- bis,|San- cta Ma-|ri- a,||
 (G8 A8) | G8 z4 c4 | (A8 B8) | A8 z8 | G8 c8- | (c4 B2 A2) B8 | A8 d8 | z4 (G8 F2 E2 | F4) G4 z8 | %28
w: San- *|cta Ma-|ri- *|a,|o- ra|_ _ _ pro|no- bis,|o- * *|* ra,|
 z8 z4 G4 | E8 F8 | D4 G8 A4- | (A2 G2 F4) G8 | z4 A4 F4 D4 | E4 E4 z4 F4 | D4 (G8 F2 E2 | %35
w: o-|ra, o-|ra pro no-|* * * bis,|San- cta Ma-|ri- a, o-|ra pro _ _|
"^SKIP to  $ to continue:" F8) G8 || (E8 D8) | d8 c8- | (c4 B2 A2 B4) B4 | (c2 B2 A2 G2 A8) | %40
w: _ no-|bis, _|o- ra|_ _ _ _ pro|no- * * * *|
 G4 (G8 F4) | G16!fine! |]S (E8 D8) | d8 c8- | (c4 B2 A2 B4) B4 | (c2 B2 A2 G2 A8) | G8 c8 | %47
w: bis De- *|um.|bis, _|o- ra|_ _ _ _ pro|no- * * * *|bis. San-|
 A8 B8 | (c8 d8) | G8 z4 c4- | (c4 B2 A2 B8) | c8 A8 | G8 c8 | z8 z4 B4 | e4 e4 d8 | G8 A4 c4- | %56
w: cta Ma-|ri- *|a, o-||ra pro|no- bis,|o-|ra pro no-|bis, San- cta|
 c4 B4 c8 | A8 z4 d4- | (d2 ^cB c4) d8 | z4 G4 E8 | D8 z4 G4 | A6 G2 F8 | G8 z8 | z8 (G8 | A8) G8 | %65
w: _ Ma- ri-|a, o-|* * * * ra|pro no-|bis, San-|cta Ma- ri-|a,|San-|* cta|
 z4 c4 (A8 | B8) A8 | z8 G8 | (c12 B2 A2) | B8 A8 | d8 z4 G4- | (G4 F2 E2 F4) G4 | z16 | z4 G4 E8 | %74
w: Ma- ri-|* a,|o-|ra _ _|pro no-|bis, o-|* * * * ra,||o- ra,|
 F8 D4 G4- | G4 (A6 G2 F4) | G8 z4 A4 | F4 D4 E4 E4 | z4 F4 D4 G4- | G4 (F2 E2) F4 F4 | G16 |] %81
w: o- ra pro|_ no- * *|bis, San-|cta Ma- ri- a,|o- ra pro|_ no- * bis De-|um.|
V:2
 z16 | z8 G8 | E8 F8 | (G8 A8) | D8 z4 G4- | (G4 F2 E2 F8) | G8 E8 | D8 G8 | z8 z4 F4 | B4 B4 A8 | %10
w: |San-|cta Ma-|ri- *|a, o-||ra pro|no- bis,|o-|ra pro no-|
 D8 E4 G4- | G4 F4 G8 | E8 z4 A4- | (A2 GF G4) A8 | z4 D4 B,8 | A,8 z4 D4 | E6 D2 ^C8 | D8 z8 | %18
w: bis, San- cta|_ Ma- ri-|a, o-|* * * * ra|pro no-|bis, San-|cta Ma- ri-|a,|
 z8 (D8 | E8) D8 | z4 G4 (E8 | F8) E8 | z8 D8 | (G12 F2 E2) | F8 E8 | A8 z4 D4- | %26
w: San-|* cta|Ma- ri-|* a,|o-|ra _ _|pro no-|bis, o-|
 (D4 C2 B,2 C4) D4 | z8 z8 | z4 D4 B,8 | C8 A,4 D4- | D4 (E6 D2 C4) | D8 z4 E4 | C4 A,4 B,4 B,4 | %33
w: * * * * ra,||o- ra,|o- ra pro|_ no- * *|bis, San-|cta Ma- ri- a,|
 z4 C4 A,4 D4- | (D4 C2 B,2 C8) | D8 (B,8 || A,8) A8 | (G12 F2 E2 | F4) F4 (G2 F2 E2 D2 | %39
w: o- ra pro|_ _ _ _|no- bis,|_ o-|ra _ _|_ pro no- * * *|
 E8) D4 A,4 | D8 D8 | D16 |] A,8 A8 | (G12 F2 E2 | F4) F4 (G2 F2 E2 D2 | E8) D8 | G8 E8 | F8 (G8 | %48
w: * bis, no-|bis De-|um.|\_\_\_ o-|ra _ _|_ pro no- * * *|* bis.|San- cta|Ma- ri-|
 A8) D8 | z4 (G8 F2 E2 | F8) G8 | E8 D8 | G8 z8 | z4 F4 B4 B4 | A8 D8 | E4 G8 F4 | G8 E8 | %57
w: * a,|o- * *|* ra|pro no-|bis,|o- ra pro|no- bis,|San- cta Ma-|ri- a,|
 z4 (A6 GF G4) | A8 z4 D4 | B,8 A,8 | z4 D4 E6 D2 | ^C8 D8 | z16 | (D8 E8) | D8 z4 G4 | (E8 F8) | %66
w: o- * * *|ra pro|no- bis,|San- cta Ma-|ri- a,||San- *|cta Ma-|ri- *|
 E8 z8 | D8 G8- | (G4 F2 E2) F8 | E8 A8 | z4 (D8 C2 B,2 | C4) D4 z8 | z8 z4 D4 | B,8 C8 | %74
w: a,|o- ra|_ _ _ pro|no- bis,|o- * *|* ra,|o-|ra, o-|
 A,4 D8 E4- | (E2 D2 C4) D8 | z4 E4 C4 A,4 | B,4 B,4 z4 C4 | A,4 D8 (C2 B,2) | C8 D8 | B,16 |] %81
w: ra pro no-|* * * bis,|San- cta Ma-|ri- a, o-|ra pro no- *|bis De-|um.|
V:3
 z8 c8 | A8 B8 | (c8 d8) | G8 z4 c4- | (c4 B2 A2 B8) | c8 A8 | G8 c8 | z8 z4 B4 | e4 e4 d8 | %9
w: San-|cta Ma-|ri- *|a, o-||ra pro|no- bis,|o-|ra pro no-|
 G8 A4 c4- | c4 B4 c8 | A8 z4 d4- | (d2 cB c4) d8 | z4 G4 E8 | D8 z4 G4 | A6 G2 F8 | G8 z8 | %17
w: bis, San- cta|_ Ma- ri-|a, o-|* * * * ra|pro no-|bis, San-|cta Ma- ri-|a,|
 z8 (G8 | A8) G8 | z4 c4 (A8 | B8) A8 | z8 G8 | (c12 B2 A2) | B8 A8 | d8 z4 G4- | %25
w: San-|* cta|Ma- ri-|* a,|o-|ra _ _|pro no-|bis, o-|
 (G4 F2 E2 F4) G4 | z16 | z4 G4 E8 | F8 D4 G4- | G4 (A6 G2 F4) | G8 z4 A4 | F4 D4 E4 E4 | %32
w: * * * * ra,||o- ra,|o- ra pro|_ no- * *|bis, San-|cta Ma- ri- a,|
 z4 F4 D4 G4- | (G4 F2 E2 F8) | G8 (E8 | D8) d8 || (c12 B2 A2 | B4) B4 (c2 B2 A2 G2 | %38
w: o- ra pro|_ _ _ _|no- bis,|_ o-|ra _ _|_ pro no- * * *|
 A8) G4 (G2 F2 | E2 D2) C4 z4 c4- | c4 B4 A8 | B16 |] (c12 B2 A2 | B4) B4 (c2 B2 A2 G2 | A8) G8 | %45
w: * bis De- *|* * um, no-|* bis De-|um.|ra _ _|_ pro no- * * *|* bis.|
 c8 A8 | B8 (c8 | d8) G8 | z4 (c8 B2 A2 | B8) c8 | A8 G8 | c8 z8 | z4 B4 e4 e4 | d8 G8 | A4 c8 B4 | %55
w: San- cta|Ma- ri-|* a,|o- * *|* ra|pro no-|bis,|o- ra pro|no- bis,|San- cta Ma-|
 c8 A8 | z4 (d6 cB c4) | d8 z4 G4 | E8 D8 | z4 G4 A6 G2 | F8 G8 | z16 | (G8 A8) | G8 z4 c4 | %64
w: ri- a,|o- * * *|ra pro|no- bis,|San- cta Ma-|ri- a,||San- *|cta Ma-|
 (A8 B8) | A8 z8 | G8 c8- | (c4 B2 A2) B8 | A8 d8 | z4 (G8 F2 E2 | F4) G4 z8 | z8 z4 G4 | E8 F8 | %73
w: ri- *|a,|o- ra|_ _ _ pro|no- bis,|o- * *|* ra,|o-|ra, o-|
 D4 G8 A4- | (A2 G2 F4) G8 | z4 A4 F4 D4 | E4 E4 z4 F4 | D4 (G8 F2 E2 | F8) G8 | E8 D8 | d16 |] %81
w: ra pro no-|* * * bis,|San- cta Ma-|ri- a, o-|ra pro _ _|_ no-|bis De-|um.|
V:4
 G,8 E,8 | F,8 (G,8 | A,8) D,8 | z4 (G,8 F,2 E,2 | F,8) G,8 | E,8 D,8 | G,8 z8 | z4 F,4 B,4 B,4 | %8
w: San- cta|Ma- ri-|* a,|o- * *|* ra|pro no-|bis,|o- ra pro|
 A,8 D,8 | E,4 G,8 F,4 | G,8 E,8 | z4 (A,6 G,F, G,4) | A,8 z4 D,4 | B,,8 A,,8 | z4 D,4 E,6 D,2 | %15
w: no- bis,|San- cta Ma-|ri- a,|o- * * *|ra pro|no- bis,|San- cta Ma-|
 ^C,8 D,8 | z16 | (D,8 E,8) | D,8 z4 G,4 | (E,8 F,8) | E,8 z8 | D,8 G,8- | (G,4 F,2 E,2) F,8 | %23
w: ri- a,||San- *|cta Ma-|ri- *|a,|o- ra|_ _ _ pro|
 E,8 A,8 | z4 (D,8 C,2 B,,2 | C,4) D,4 z8 | z8 z4 D,4 | B,,8 C,8 | A,,4 D,8 E,4- | %29
w: no- bis,|o- * *|* ra,|o-|ra, o-|ra pro no-|
 (E,2 D,2 C,4) D,8 | z4 E,4 C,4 A,,4 | B,,4 B,,4 z4 C,4 | A,,4 (D,8 C,2 B,,2 | C,8) D,8 | %34
w: * * * bis,|San- cta Ma-|ri- a, o-|ra pro _ _|_ no-|
 (B,,8 A,,8) | A,8 G,8- || (G,4 F,2 E,2 F,4) F,4 | (G,2 F,2 E,2 D,2 E,8) | %38
w: bis, _|o- ra|_ _ _ _ pro|no- * * * *|
 D,4 (D,2 C,2 B,,2 A,,2) G,,4 | z4 (G,8 F,4) | G,8 D,8 | G,,16 |] (G,4 F,2 E,2 F,4) F,4 | %43
w: bis De- * * * um,|no- *|bis De-|um.|* \_\_\_\_\_\_\_\_ * * pro|
 (G,2 F,2 E,2 D,2 E,8) | D,8 G,8 | E,8 F,8 | (G,8 A,8) | D,8 z4 G,4- | (G,4 F,2 E,2 F,8) | %49
w: no- * * * *|bis. San-|cta Ma-|ri- *|a, o-||
 G,8 E,8 | D,8 G,8 | z8 z4 F,4 | B,4 B,4 A,8 | D,8 E,4 G,4- | G,4 F,4 G,8 | E,8 z4 A,4- | %56
w: ra pro|no- bis,|o-|ra pro no-|bis, San- cta|_ Ma- ri-|a, o-|
 (A,2 G,F, G,4) A,8 | z4 D,4 B,,8 | A,,8 z4 D,4 | E,6 D,2 ^C,8 | D,8 z8 | z8 (D,8 | E,8) D,8 | %63
w: * * * * ra|pro no-|bis, San-|cta Ma- ri-|a,|San-|* cta|
 z4 G,4 (E,8 | F,8) E,8 | z8 D,8 | (G,12 F,2 E,2) | F,8 E,8 | A,8 z4 D,4- | %69
w: Ma- ri-|* a,|o-|ra _ _|pro no-|bis, o-|
 (D,4 C,2 B,,2 C,4) D,4 | z16 | z4 D,4 B,,8 | C,8 A,,4 D,4- | D,4 (E,6 D,2 C,4) | D,8 z4 E,4 | %75
w: * * * * ra,||o- ra,|o- ra pro|_ no- * *|bis, San-|
 C,4 A,,4 B,,4 B,,4 | z4 C,4 A,,4 D,4- | (D,4 C,2 B,,2 C,8) | D,8 (B,,8 | A,,8) A,8 | G,16 |] %81
w: cta Ma- ri- a,|o- ra pro|_ _ _ _|no- bis|_ De-|um.|

